svg/emoji_u0037_20e3.svg

<?xml version="1.0" encoding="UTF-8"?>
<svg width="128" height="128" enable-background="new 0 0 128 128" xmlns="http://www.w3.org/2000/svg"><linearGradient id="b" x1="5.5161" x2="118.82" y1="5.2803" y2="119.05" gradientUnits="userSpaceOnUse"><stop stop-color="#81D4FA" offset="0"/><stop stop-color="#0094D6" offset="1"/></linearGradient><path d="m116 124h-104c-4.42 0-8-3.58-8-8v-104c0-4.42 3.58-8 8-8h104c4.42 0 8 3.58 8 8v104c0 4.42-3.58 8-8 8z" fill="url(#b)"/><g opacity=".2"><path d="m116 7c2.76 0 5 2.24 5 5v104c0 2.76-2.24 5-5 5h-104c-2.76 0-5-2.24-5-5v-104c0-2.76 2.24-5 5-5h104m0-3h-104c-4.42 0-8 3.58-8 8v104c0 4.42 3.58 8 8 8h104c4.42 0 8-3.58 8-8v-104c0-4.42-3.58-8-8-8z" fill="#424242"/></g><linearGradient id="a" x1="21.247" x2="106.25" y1="20.744" y2="106.74" gradientUnits="userSpaceOnUse"><stop stop-color="#C2ECFF" offset="0"/><stop stop-color="#BDEAFE" offset=".157"/><stop stop-color="#AEE3FA" offset=".3484"/><stop stop-color="#95D7F5" offset=".5578"/><stop stop-color="#73C7ED" offset=".7789"/><stop stop-color="#49B3E3" offset="1"/></linearGradient><path d="m101 109h-74c-4.42 0-8-3.58-8-8v-74c0-4.42 3.58-8 8-8h74c4.42 0 8 3.58 8 8v74c0 4.42-3.58 8-8 8z" fill="url(#a)"/><g opacity=".2"><path d="m88.28 26c1.14 0 2.06 0.92 2.06 2.06v4.56c0 0.29-0.06 0.57-0.17 0.83l-29.66 67.33c-0.33 0.75-1.07 1.23-1.88 1.23h-8.76c-1.5 0-2.49-1.55-1.87-2.92l27.64-59.99c0.63-1.36-0.37-2.92-1.87-2.92h-34.05c-1.14 0-2.06-0.92-2.06-2.06v-6.07c0-1.14 0.92-2.06 2.06-2.06h48.56m0-2.99h-48.56c-2.79 0-5.06 2.27-5.06 5.06v6.07c0 2.79 2.27 5.06 5.06 5.06h32.56l-27.02 58.64c-0.72 1.57-0.6 3.38 0.33 4.84s2.53 2.33 4.26 2.33h8.76c2 0 3.82-1.18 4.63-3.02l29.66-67.33c0.28-0.65 0.43-1.33 0.43-2.04v-4.56c0-2.78-2.26-5.05-5.05-5.05z" fill="#424242"/></g><path d="m90.16 33.44-29.66 67.33c-0.33 0.75-1.07 1.23-1.88 1.23h-8.76c-1.5 0-2.49-1.55-1.87-2.92l27.64-59.99c0.63-1.36-0.37-2.92-1.87-2.92h-34.04c-1.14 0-2.06-0.92-2.06-2.06v-6.07c0-1.14 0.92-2.06 2.06-2.06h48.56c1.14 0 2.06 0.92 2.06 2.06v4.56c-0.01 0.3-0.07 0.58-0.18 0.84z" fill="#FAFAFA"/></svg>

<svg width="128" height="128" style="enable-background:new 0 0 128 128;" xmlns="http://www.w3.org/2000/svg" xmlns:xlink="http://www.w3.org/1999/xlink">
  <g>
    <linearGradient id="SVGID_1_" gradientUnits="userSpaceOnUse" x1="5.5161" x2="118.8247" y1="5.2803" y2="119.0458">
      <stop offset="0" style="stop-color:#81D4FA"/>
      <stop offset="1" style="stop-color:#0094D6"/>
    </linearGradient>
    <path d="M116,124H12c-4.42,0-8-3.58-8-8V12c0-4.42,3.58-8,8-8h104c4.42,0,8,3.58,8,8v104 C124,120.42,120.42,124,116,124z" style="fill:url(#SVGID_1_);"/>
    <g style="opacity:0.2;">
      <path d="M116,7c2.76,0,5,2.24,5,5v104c0,2.76-2.24,5-5,5H12c-2.76,0-5-2.24-5-5V12c0-2.76,2.24-5,5-5H116 M116,4H12c-4.42,0-8,3.58-8,8v104c0,4.42,3.58,8,8,8h104c4.42,0,8-3.58,8-8V12C124,7.58,120.42,4,116,4L116,4z" style="fill:#424242;"/>
    </g>
    <linearGradient id="SVGID_2_" gradientUnits="userSpaceOnUse" x1="21.2471" x2="106.2471" y1="20.7441" y2="106.7441">
      <stop offset="0" style="stop-color:#C2ECFF"/>
      <stop offset="0.157" style="stop-color:#BDEAFE"/>
      <stop offset="0.3484" style="stop-color:#AEE3FA"/>
      <stop offset="0.5578" style="stop-color:#95D7F5"/>
      <stop offset="0.7789" style="stop-color:#73C7ED"/>
      <stop offset="1" style="stop-color:#49B3E3"/>
    </linearGradient>
    <path d="M101,109H27c-4.42,0-8-3.58-8-8V27c0-4.42,3.58-8,8-8h74c4.42,0,8,3.58,8,8v74 C109,105.42,105.42,109,101,109z" style="fill:url(#SVGID_2_);"/>
  </g>
  <g>
    <g style="opacity:0.2;">
      <path d="M88.28,26c1.14,0,2.06,0.92,2.06,2.06v4.56c0,0.29-0.06,0.57-0.17,0.83l-29.66,67.33 c-0.33,0.75-1.07,1.23-1.88,1.23h-8.76c-1.5,0-2.49-1.55-1.87-2.92l27.64-59.99c0.63-1.36-0.37-2.92-1.87-2.92H39.72 c-1.14,0-2.06-0.92-2.06-2.06v-6.07c0-1.14,0.92-2.06,2.06-2.06H88.28 M88.28,23H39.72c-2.79,0-5.06,2.27-5.06,5.06v6.07 c0,2.79,2.27,5.06,5.06,5.06h32.56L45.26,97.83c-0.72,1.57-0.6,3.38,0.33,4.84c0.93,1.46,2.53,2.33,4.26,2.33h8.76 c2,0,3.82-1.18,4.63-3.02L92.9,34.65c0.28-0.65,0.43-1.33,0.43-2.04v-4.56C93.33,25.27,91.07,23,88.28,23L88.28,23z" style="fill:#424242;"/>
    </g>
    <path d="M90.16,33.44l-29.66,67.33c-0.33,0.75-1.07,1.23-1.88,1.23h-8.76c-1.5,0-2.49-1.55-1.87-2.92 l27.64-59.99c0.63-1.36-0.37-2.92-1.87-2.92H39.72c-1.14,0-2.06-0.92-2.06-2.06v-6.07c0-1.14,0.92-2.06,2.06-2.06h48.56 c1.14,0,2.06,0.92,2.06,2.06v4.56C90.33,32.9,90.27,33.18,90.16,33.44z" style="fill:#FAFAFA;"/>
  </g>
</svg>
